X: 1945
T: Uncle Dave's Polka
B: australian traditional tunes wiki
M:2/4
L:1/8
R: Polka
Q: 1/4=100
K:G
V:1 
d/c/|:"G"BG BA/B/|"C"c/B/c "G"dg|BG Bc/B/|"D7"A/G/F/G/ Ac|
"G"BG BA/B/|"C"c/B/c "G"dg|dB "D7"c/B/A/c/|1"G"BG Gd/c/:|2"G"BG GF/G/||
|:"D7"A/G/A/B/ cA|"G"B/A/B/c/ dB|"A7"A/G/F/G/ AB|"D7"A/G/F/E/ Dd/c/|
"G"BG BA/B/|"C"c/B/c "G"dg|dB "D7"c/B/A/c/|1"G"BF GF/G/:|2"G"BG G>B||
|:"D"Add>B|Aa a>f|"G"g/f/e/d/ "A7"c/d/e/f/|"E7"e/d/c/B/ "A7"Aa|
"D"Add>B|Aa a>f|"G"g/f/e/d/ "A7"c/d/e/g/|1"D"fd d>B:|2"D"fdd2||
% abcbook-tune_id 6342d5bef56c0e5dfe464305


% abcbook-boost 0
% abcbook-tablature 
% abcbook-transpose 
% abcbook-lastupdated 1665324489447
% abcbook-soundfonts 
% abcbook-repeats 1
% NFF Book 2010

